X: 11101
T: VISIT TO SANDY
C: Bob McQuillen 16 Oct 94
B: Bob's Note Book 11 #101
%R: reel
Z: 2019 John Chambers <jc:trillian.mit.edu>
M: C
L: 1/8
K: D
DE \
| F2DF AFDE | FABd ABde | f2af edBd | gdfd edBA |
| F2DF AFDE | FABd efde | f2af edBd | ABde fd  :|
|: fg \
| a2fd edBd | gdfd B2dB | Adfd edfa | gbaf egfg |
| a2ba fdBd | g2fd edBd | fafd Bdgb | afef d2 :|
%%begintext align
%% Thanks to
%% Marianne Jewell, my trip to Cape Breton
%% Island included a wonderful evening of
%% music with Sandy Cameron of Mabou. I
%% sure hope he likes his tune. Thanks loads
%% for such a good time, Sandy!
%%endtext

%%sep 1 1 500

%%sep 1 1 500

